!!!OTL: 60. Skotshne
!!!Genre:	Skotshne
!!!Mode:	Altered Dorian
!!!Listening/dance:	listening
!!!One_Mode:	no
**kern
*thru
*I"P1
*clefG2
*>A
*k[b-]
*g:
=13
!LO:TX:a:i:t=G-minor
8.dL
16f#Xk
8a
8ccnJ
=14
(16ccnLL
16b-JJ)
4b-
(16aLL
16gJJ)
=15
(8ee-XL
16aaaaJk)
16r
(8ddL
16aaaaJk)
16r
=16
(8ccnL
16aaaaJk)
16r
(8b-L
16aaaaJk)
16r
=17
8.dL
16f#Xk
8a
8ccnJ
=18
(16ccnLL
16b-JJ)
4b-
((8qb-/
16aLL)
16gJJ)
=19
(16dLL
16g
16a
16b-JJ)
(8qb-/
(16aLL)
16g
16f#X
16aJJ)
=20
4g
4g
*>B
=:|!
!!!End-Modulation
*g:
=9!|:
!LO:TX:a:i:t=G-raised-fourth
16ggLL
16ff
16ee
16ddJJ
16cc#XLL
16dd
16ee
16ffJJ
=10
8.ddL
16cc#XJk
8ddL
24b-L
24a
24gJJ
=11
(16dLL
16fJ)
24b-L
24a
24gJJ
(16ddLL
16gJ)
24b-L
24a
24gJJ
=12
(16ggLL
16gJ)
24b-L
24a
24gJJ
8eeeeL
8ddJ
!!!Begin-Modulation
*g:
=13
!LO:TX:a:i:t=G-minor
8.dL
16f#Xk
8a
8ccnJ
=14
(16ccnLL
16b-JJ)
4b-
(16aLL
16gJJ)
=15
(8ee-XL
16aaaaJk)
16r
(8ddL
16aaaaJk)
16r
=16
(8ccnL
16aaaaJk)
16r
(8b-L
16aaaaJk)
16r
=17
8.dL
16f#Xk
8a
8ccnJ
=18
(16ccnLL
16b-JJ)
4b-
((8qb-/
16aLL)
16gJJ)
=19
(16dLL
16g
16a
16b-JJ)
(8qb-/
(16aLL)
16g
16f#X
16aJJ)
=20
4g
4g
=:|!
!!!End-Modulation
*-
